X:1
T:Title
%%score ( 1 2 ) ( 3 4 5 ) ( 6 7 )
L:1/8
Q:1/4=100
M:4/4
K:F
V:1 treble nm="Violin, Soprano"
V:2 treble 
V:3 treble nm="Grand Piano, Staff-1"
V:4 treble 
V:5 treble 
V:6 bass nm="Choir Pad, Our Christmas Tree"
V:7 bass 
V:1
 FG [FA]2 [FA]2 [DB]2- | [DB][DA] [^CA]2 [B,F]2 [A,F]2 | z4 z2 f2 | z8 | FG A2 A2 B2- | %5
 BA A2 F2 F2 | c2 d2 c2 f2 | A2 G6 | G2 G2- GA B2 | d2 cd cB A2 | f2 ef Af e2 | d2 c6 | %12
 AB c2 c2 c2 | ccdc A4 | AB c2 c2 d2- | dccB G4 | AB c2 c2 c2 | ccdc f4 | cB A2 G2 F2 | %19
 E2 F2 F2 F2 | z8 | z8 | FG A2 A2 B2- | BA A2 F2 F2 | c2 d2 c2 f2 | A2 G6 | G2 G2- GA B2 | %27
 d2 cd cB A2 | f2 ef Af e2 | d2 c6 | AB c2 c2 c2 | ccdc A4 | AB c2 c2 d2- | dccB G4 | AB c2 c2 c2 | %35
 ccdc f4 | cB A2 G2 F2 | E2 F2 F2 F2 | z8 | z8 | FG A2 A2 B2- | BA A2 F2 F2 | c2 d2 c2 f2 | A2 G6 | %44
 G2 G2- GA B2 | d2 cd cB A2 | f2 ef Af e2 | d2 c6 | AB c2 c2 c2 | ccdc A4 | AB c2 c2 d2- | %51
 dccB G4 | AB c2 c2 c2 | ccdc f4 | cB A2 G2 F2 | E2 F2 F2 F2 | z8 | z8 |] %58
V:2
 x8 | x8 | [Fc]2 [Fd]2 [Fc]2 F2- | [FA]2 [FG]2 [EG]2 F2 | x8 | x8 | x8 | x8 | x8 | x8 | x8 | x8 | %12
 x8 | x8 | x8 | x8 | x8 | x8 | x8 | x8 | x8 | x8 | x8 | x8 | x8 | x8 | x8 | x8 | x8 | x8 | x8 | %31
 x8 | x8 | x8 | x8 | x8 | x8 | x8 | x8 | x8 | x8 | x8 | x8 | x8 | x8 | x8 | x8 | x8 | x8 | x8 | %50
 x8 | x8 | x8 | x8 | x8 | x8 | x8 | x8 |] %58
V:3
 z8 | z8 | z8 | z8 | FG [FA]4 [D=B]2- | [DB][DA] [^CA]2 [A,F]2 [G,F]2 | [Fc]2 d2 c2 f2 | %7
 A2 z2 ED E2 | [EG]2 [DG]2- [DG][DA] [D=B]2 | [Dd]2 cd c=B [FA]2 | [Af]2 ef Af z G | d2 z2 z4 | %12
 .A2 z2 z4 | [Fc]2 dc A4 | A=B [Fc]2 [Fc]2 [Fd]2- | [Fd][Fc]c=B [EG]4 | .A2 z2 z4 | %17
 [Fc]2 dc [Ff]4 | G2 z2 z4 | [CE]2 [CF]2 [DF]2 [CF]2 | c=BAB D[GB] [FA]2 | [EG]2 F2 [DF]2 [CF]2 | %22
 FG [FA]4 [D=B]2- | [DB][DA] [^CA]2 [A,F]2 [G,F]2 | [Fc]2 d2 c2 f2 | A2 z2 ED E2 | %26
 [EG]2 [DG]2- [DG][DA] [D=B]2 | [Dd]2 cd c=B [FA]2 | [Af]2 ef Af z G | d2 z2 z4 | .A2 z2 z4 | %31
 [Fc]2 dc A4 | A=B [Fc]2 [Fc]2 [Fd]2- | [Fd][Fc]c=B [EG]4 | .A2 z2 z4 | [Fc]2 dc [Ff]4 | G2 z2 z4 | %37
 [CE]2 [CF]2 [DF]2 [CF]2 | c=BAB D[GB] [FA]2 | [EG]2 F2 [DF]2 [CF]2 | FG [FA]4 [D=B]2- | %41
 [DB][DA] [^CA]2 [A,F]2 [G,F]2 | [Fc]2 d2 c2 f2 | A2 z2 ED E2 | [EG]2 [DG]2- [DG][DA] [D=B]2 | %45
 [Dd]2 cd c=B [FA]2 | [Af]2 ef Af z G | d2 z2 z4 | .A2 z2 z4 | [Fc]2 dc A4 | %50
 A=B [Fc]2 [Fc]2 [Fd]2- | [Fd][Fc]c=B [EG]4 | .A2 z2 z4 | [Fc]2 dc [Ff]4 | G2 z2 z4 | %55
 [CE]2 [CF]2 [DF]2 [CF]2 | c=BAB D[GB] [FA]2 | [EG]2 F2 [DF]2 [CF]2 |] %58
V:4
 x8 | x8 | x8 | x8 | x8 | x8 | z2 F6- | F4 z4 | x8 | x8 | x8 | x8 | x8 | x8 | x8 | x8 | x8 | x8 | %18
 x8 | x8 | x8 | x8 | x8 | x8 | z2 F6- | F4 z4 | x8 | x8 | x8 | x8 | x8 | x8 | x8 | x8 | x8 | x8 | %36
 x8 | x8 | x8 | x8 | x8 | x8 | z2 F6- | F4 z4 | x8 | x8 | x8 | x8 | x8 | x8 | x8 | x8 | x8 | x8 | %54
 x8 | x8 | x8 | x8 |] %58
V:5
 x8 | x8 | x8 | x8 | x8 | x8 | x8 | z2 G6 | x8 | z2 G2 E2 z2 | z2 A2 z2 e2 | ^F=F [Ec]6 | %12
 F-[F=B] [Fc]2 [Fc]2 [Fc]2 | z2 F6 | F2 z2 z4 | z2 G2 z4 | F-[F=B] [Fc]2 [Fc]2 [Fc]2 | z2 F2 z4 | %18
 c=B [FA]2 [DG]2 [CF]2 | x8 | x8 | x8 | x8 | x8 | x8 | z2 G6 | x8 | z2 G2 E2 z2 | z2 A2 z2 e2 | %29
 ^F=F [Ec]6 | F-[F=B] [Fc]2 [Fc]2 [Fc]2 | z2 F6 | F2 z2 z4 | z2 G2 z4 | F-[F=B] [Fc]2 [Fc]2 [Fc]2 | %35
 z2 F2 z4 | c=B [FA]2 [DG]2 [CF]2 | x8 | x8 | x8 | x8 | x8 | x8 | z2 G6 | x8 | z2 G2 E2 z2 | %46
 z2 A2 z2 e2 | ^F=F [Ec]6 | F-[F=B] [Fc]2 [Fc]2 [Fc]2 | z2 F6 | F2 z2 z4 | z2 G2 z4 | %52
 F-[F=B] [Fc]2 [Fc]2 [Fc]2 | z2 F2 z4 | c=B [FA]2 [DG]2 [CF]2 | x8 | x8 | x8 |] %58
V:6
 F,2 F,4 z2 | z8 | [F,A,]2 B,2 [A,C]2 C2 | =B,2 [G,_B,]2 [C,B,]2 [F,A,]2 | F,2 z2 z4 | z8 | %6
w: By~Henry~Stephen~Cutler *||||||
 [F,A,]2 B,2 [A,C]2 C2 | =B,2 _B,D CB, [C,C]2 | [C,C]2 [B,,G,]2- [B,,G,][A,,^F,] [G,,G,]2 | %9
w: |||
 [F,A,]2 C2- [C,C-]2 [F,C]2 | [F,C]2 [A,C]2 ED C2 | =B,2 [C,C]2[K:treble] CD[A,C][G,_B,] | %12
w: |||
 [A,C][K:bass][G,B,] [F,A,]2 [F,A,]2 [F,A,]2 | [F,A,]2 B,A, C4 | CB, A,2 [F,A,]2 [F,B,]2- | %15
w: |||
 [F,B,][F,A,] [E,C]2 [C,C]4 | CB, [F,A,]2 [F,A,]2 [F,A,]2 | [F,A,]2 B,A, [D,A,]4 | %18
w: |||
 [E,C]2 [F,C]2 [B,,B,]2 [C,A,]2 | [C,G,]2 [F,A,]2 [F,B,]2 [F,A,]2 | z4 [B,,G,]2 [C,C]2 | %21
w: |||
 [C,B,]2 [F,A,]2 [F,B,]2 [F,A,]2 | F,2 z2 z4 | z8 | [F,A,]2 B,2 [A,C]2 C2 | =B,2 _B,D CB, [C,C]2 | %26
w: |||||
 [C,C]2 [B,,G,]2- [B,,G,][A,,^F,] [G,,G,]2 | [F,A,]2 C2- [C,C-]2 [F,C]2 | [F,C]2 [A,C]2 ED C2 | %29
w: |||
 =B,2 [C,C]2[K:treble] CD[A,C][G,_B,] | [A,C][K:bass][G,B,] [F,A,]2 [F,A,]2 [F,A,]2 | %31
w: ||
 [F,A,]2 B,A, C4 | CB, A,2 [F,A,]2 [F,B,]2- | [F,B,][F,A,] [E,C]2 [C,C]4 | %34
w: |||
 CB, [F,A,]2 [F,A,]2 [F,A,]2 | [F,A,]2 B,A, [D,A,]4 | [E,C]2 [F,C]2 [B,,B,]2 [C,A,]2 | %37
w: |||
 [C,G,]2 [F,A,]2 [F,B,]2 [F,A,]2 | z4 [B,,G,]2 [C,C]2 | [C,B,]2 [F,A,]2 [F,B,]2 [F,A,]2 | %40
w: |||
 F,2 z2 z4 | z8 | [F,A,]2 B,2 [A,C]2 C2 | =B,2 _B,D CB, [C,C]2 | %44
w: ||||
 [C,C]2 [B,,G,]2- [B,,G,][A,,^F,] [G,,G,]2 | [F,A,]2 C2- [C,C-]2 [F,C]2 | [F,C]2 [A,C]2 ED C2 | %47
w: |||
 =B,2 [C,C]2[K:treble] CD[A,C][G,_B,] | [A,C][K:bass][G,B,] [F,A,]2 [F,A,]2 [F,A,]2 | %49
w: ||
 [F,A,]2 B,A, C4 | CB, A,2 [F,A,]2 [F,B,]2- | [F,B,][F,A,] [E,C]2 [C,C]4 | %52
w: |||
 CB, [F,A,]2 [F,A,]2 [F,A,]2 | [F,A,]2 B,A, [D,A,]4 | [E,C]2 [F,C]2 [B,,B,]2 [C,A,]2 | %55
w: |||
 [C,G,]2 [F,A,]2 [F,B,]2 [F,A,]2 | z4 [B,,G,]2 [C,C]2 | [C,B,]2 [F,A,]2 [F,B,]2 [F,A,]2 |] %58
w: |||
V:7
 A,B, C2 C2 [B,,B,]2- | [B,,B,][D,^F,] [A,,E,]2 [B,,D,]2 [F,,C,]2 | z4 z2 D,2- | D,2 z2 z4 | %4
 A,B, [F,C]4 [B,,B,]2- | [B,,B,][D,^F,] [A,,E,]2 [B,,D,]2 [F,,C,]2 | z4 z2 D,2- | D,2 G,4 z2 | x8 | %9
 z2 E,2 z4 | z4 F,2 G,2- | G,2 z2[K:treble] z4 | x[K:bass] x7 | z2 F,6- | F,4 z4 | x8 | F,2 z2 z4 | %17
 z2 F,2 z4 | x8 | x8 | x8 | x8 | A,B, [F,C]4 [B,,B,]2- | %23
 [B,,B,][D,^F,] [A,,E,]2 [B,,D,]2 [F,,C,]2 | z4 z2 D,2- | D,2 G,4 z2 | x8 | z2 E,2 z4 | %28
 z4 F,2 G,2- | G,2 z2[K:treble] z4 | x[K:bass] x7 | z2 F,6- | F,4 z4 | x8 | F,2 z2 z4 | z2 F,2 z4 | %36
 x8 | x8 | x8 | x8 | A,B, [F,C]4 [B,,B,]2- | [B,,B,][D,^F,] [A,,E,]2 [B,,D,]2 [F,,C,]2 | %42
 z4 z2 D,2- | D,2 G,4 z2 | x8 | z2 E,2 z4 | z4 F,2 G,2- | G,2 z2[K:treble] z4 | x[K:bass] x7 | %49
 z2 F,6- | F,4 z4 | x8 | F,2 z2 z4 | z2 F,2 z4 | x8 | x8 | x8 | x8 |] %58

